X:1
T: John Andrew's Five Miles
C:Hugh Ferguson
R:Jig
Q:180
K:C
M:6/8
L:1/16
de|:g2d2e2 g2B2c2|^c2d2B2 G2F2E2|D2F2A2 D2F2A2|G2A2^A2 B4d2|
g2d2e2 g2B2c2|^c2d2B2 G2F2E2|D2F2A2 c2A2F2|1G6G2d2e2:|2G6G2F2E2|
|:D2F2A2 c2A2F2|G2B2d2 e2d2B2|A2^c2e2 g2e2c2|d2^c2d2f6|
g2f2g2 e2d2B2|d2e2d2 B2A2G2|D2F2A2 c2A2F2|1G6G2F2E2:|2G6G4||
